src/assets/naruto.svg

<?xml version="1.0" encoding="UTF-8"?>
<!DOCTYPE svg  PUBLIC '-//W3C//DTD SVG 1.1//EN'  'http://www.w3.org/Graphics/SVG/1.1/DTD/svg11.dtd'>
<svg width="800px" height="800px" clip-rule="evenodd" fill="#000000" fill-rule="evenodd" stroke-linecap="round" stroke-linejoin="round" stroke-miterlimit="1.5" version="1.1" viewBox="-6.4 -6.4 76.8 76.8" xml:space="preserve" xmlns="http://www.w3.org/2000/svg">





 <g transform="translate(-84)"> <g transform="translate(-188.33)"> <rect x="272.33" width="64" height="64" fill="none"/> <g transform="translate(180.33)"> <path d="m121.48 5.673c0.429-1.014 1.424-1.673 2.525-1.673s2.096 0.659 2.525 1.673l1.845 4.357 3.372-3.319c0.784-0.773 1.955-1.001 2.973-0.58 1.018 0.422 1.684 1.411 1.693 2.513l0.037 4.731 4.385-1.777c1.021-0.413 2.19-0.176 2.969 0.603s1.016 1.948 0.603 2.969l-1.777 4.385 4.731 0.037c1.102 9e-3 2.091 0.675 2.513 1.693 0.421 1.018 0.193 2.189-0.58 2.973l-3.319 3.372 4.357 1.845c1.014 0.429 1.673 1.424 1.673 2.525s-0.659 2.096-1.673 2.525l-4.357 1.845 3.319 3.372c0.773 0.784 1.001 1.955 0.58 2.973-0.422 1.018-1.411 1.684-2.513 1.693l-4.731 0.037 1.777 4.385c0.413 1.021 0.176 2.19-0.603 2.969s-1.948 1.016-2.969 0.603l-4.385-1.777-0.037 4.731c-9e-3 1.102-0.675 2.091-1.693 2.513-1.018 0.421-2.189 0.193-2.973-0.58l-3.372-3.319-1.845 4.357c-0.429 1.014-1.424 1.673-2.525 1.673s-2.096-0.659-2.525-1.673l-1.845-4.357-3.372 3.319c-0.784 0.773-1.955 1.001-2.973 0.58-1.018-0.422-1.684-1.411-1.693-2.513l-0.037-4.731-4.385 1.777c-1.021 0.413-2.19 0.176-2.969-0.603s-1.016-1.948-0.603-2.969l1.777-4.385-4.731-0.037c-1.102-9e-3 -2.091-0.675-2.513-1.693-0.421-1.018-0.193-2.189 0.58-2.973l3.319-3.372-4.357-1.845c-1.014-0.429-1.673-1.424-1.673-2.525s0.659-2.096 1.673-2.525l4.357-1.845-3.319-3.372c-0.773-0.784-1.001-1.955-0.58-2.973 0.422-1.018 1.411-1.684 2.513-1.693l4.731-0.037-1.777-4.385c-0.413-1.021-0.176-2.19 0.603-2.969s1.948-1.016 2.969-0.603l4.385 1.777 0.037-4.731c9e-3 -1.102 0.675-2.091 1.693-2.513 1.018-0.421 2.189-0.193 2.973 0.58l3.372 3.319 1.845-4.357z" fill="#fff" stroke="#1A202C" stroke-width="2px"/> </g> <g transform="matrix(1.0104 0 0 1.0588 185.39 2.1365)"> <path d="m116 31s-1.651-6.52 6-6 4.254 7.473 1 10-15.816 3.659-14-7 11-8 11-8" fill="none" stroke="#E03131" stroke-width="1.93px"/> </g> </g> </g> 

</svg>

<!DOCTYPE svg PUBLIC "-//W3C//DTD SVG 1.1//EN" "http://www.w3.org/Graphics/SVG/1.1/DTD/svg11.dtd">
<!-- Uploaded to: SVG Repo, www.svgrepo.com, Transformed by: SVG Repo Mixer Tools -->
<svg fill="#000000" width="800px" height="800px" viewBox="-6.4 -6.4 76.80 76.80" style="fill-rule:evenodd;clip-rule:evenodd;stroke-linecap:round;stroke-linejoin:round;stroke-miterlimit:1.5;" version="1.1" xml:space="preserve" xmlns="http://www.w3.org/2000/svg" xmlns:serif="http://www.serif.com/" xmlns:xlink="http://www.w3.org/1999/xlink">
<g id="SVGRepo_bgCarrier" stroke-width="0"/>
<g id="SVGRepo_tracerCarrier" stroke-linecap="round" stroke-linejoin="round"/>
<g id="SVGRepo_iconCarrier"> <g transform="matrix(1,0,0,1,-84,0)"> <g id="Naruto" transform="matrix(1,0,0,1,-188.333,0)"> <rect height="64" style="fill:none;" width="64" x="272.333" y="0"/> <g transform="matrix(1,0,0,1,180.333,0)"> <path d="M121.475,5.673C121.904,4.659 122.899,4 124,4C125.101,4 126.096,4.659 126.525,5.673L128.37,10.03L131.742,6.711C132.526,5.938 133.697,5.71 134.715,6.131C135.733,6.553 136.399,7.542 136.408,8.644L136.445,13.375L140.83,11.598C141.851,11.185 143.02,11.422 143.799,12.201C144.578,12.98 144.815,14.149 144.402,15.17L142.625,19.555L147.356,19.592C148.458,19.601 149.447,20.267 149.869,21.285C150.29,22.303 150.062,23.474 149.289,24.258L145.97,27.63L150.327,29.475C151.341,29.904 152,30.899 152,32C152,33.101 151.341,34.096 150.327,34.525L145.97,36.37L149.289,39.742C150.062,40.526 150.29,41.697 149.869,42.715C149.447,43.733 148.458,44.399 147.356,44.408L142.625,44.445L144.402,48.83C144.815,49.851 144.578,51.02 143.799,51.799C143.02,52.578 141.851,52.815 140.83,52.402L136.445,50.625L136.408,55.356C136.399,56.458 135.733,57.447 134.715,57.869C133.697,58.29 132.526,58.062 131.742,57.289L128.37,53.97L126.525,58.327C126.096,59.341 125.101,60 124,60C122.899,60 121.904,59.341 121.475,58.327L119.63,53.97L116.258,57.289C115.474,58.062 114.303,58.29 113.285,57.869C112.267,57.447 111.601,56.458 111.592,55.356L111.555,50.625L107.17,52.402C106.149,52.815 104.98,52.578 104.201,51.799C103.422,51.02 103.185,49.851 103.598,48.83L105.375,44.445L100.644,44.408C99.542,44.399 98.553,43.733 98.131,42.715C97.71,41.697 97.938,40.526 98.711,39.742L102.03,36.37L97.673,34.525C96.659,34.096 96,33.101 96,32C96,30.899 96.659,29.904 97.673,29.475L102.03,27.63L98.711,24.258C97.938,23.474 97.71,22.303 98.131,21.285C98.553,20.267 99.542,19.601 100.644,19.592L105.375,19.555L103.598,15.17C103.185,14.149 103.422,12.98 104.201,12.201C104.98,11.422 106.149,11.185 107.17,11.598L111.555,13.375L111.592,8.644C111.601,7.542 112.267,6.553 113.285,6.131C114.303,5.71 115.474,5.938 116.258,6.711L119.63,10.03L121.475,5.673Z" style="fill:white;stroke:#1A202C;stroke-width:2px;"/> </g> <g transform="matrix(1.01035,0,0,1.05877,185.386,2.13651)"> <path d="M116,31C116,31 114.349,24.48 122,25C129.651,25.52 126.254,32.473 123,35C119.746,37.527 107.184,38.659 109,28C110.816,17.341 120,20 120,20" style="fill:none;stroke:#E03131;stroke-width:1.93px;"/> </g> </g> </g> </g>
</svg>
